svgs/sharp-regular/house.svg

<svg xmlns="http://www.w3.org/2000/svg" viewBox="0 0 576 512"><!--! Font Awesome Pro 6.6.0 by @fontawesome - https://fontawesome.com License - https://fontawesome.com/license (Commercial License) Copyright 2024 Fonticons, Inc. --><path d="M303.5 13.7L288 .5 272.5 13.7l-264 224 31.1 36.6L64 253.5 64 488l0 24 24 0 400 0 24 0 0-24 0-234.5 24.5 20.8 31.1-36.6-264-224zM112 464l0-251.2L288 63.5 464 212.8 464 464l-80 0 0-168 0-24-24 0-144 0-24 0 0 24 0 168-80 0zm128 0l0-144 96 0 0 144-96 0z"/></svg>

<svg xmlns="http://www.w3.org/2000/svg" viewBox="0 0 576 512"><!--! Font Awesome Pro 6.4.0 by @fontawesome - https://fontawesome.com License - https://fontawesome.com/license (Commercial License) Copyright 2023 Fonticons, Inc. --><path d="M303.5 13.7L288 .5 272.5 13.7l-264 224 31.1 36.6L64 253.5V488v24H88 488h24V488 253.5l24.5 20.8 31.1-36.6-264-224zM112 464V212.8L288 63.5 464 212.8V464H384V296 272H360 216 192v24V464H112zm128 0V320h96V464H240z"/></svg>
